src/topics/icons/intercom.svg

<svg height="256" preserveAspectRatio="xMidYMid" viewBox="0 0 256 256" width="256" xmlns="http://www.w3.org/2000/svg"><path d="m221.866778 115.251627c0-4.712534-3.820788-8.533334-8.533306-8.533334s-8.533305 3.8208-8.533305 8.533334v76.748373c0 4.712533 3.820787 8.533333 8.533305 8.533333s8.533306-3.8208 8.533306-8.533333zm-2.978124-53.4124803c-1.318396-1.1291734-32.930026-27.65504-90.888237-27.65504-57.9582117 0-89.5687754 26.52672-90.8871711 27.6558933-3.5775884 3.0666667-3.9916671 8.4541867-.9250104 12.03328 3.0600434 3.5709867 8.4323993 3.9933867 12.0125476.9416533.501545-.4192 28.7288665-23.5624533 79.7996339-23.5633066 51.712258 0 79.503954 23.3109333 79.77894 23.5458133 3.570762 3.0666667 8.967437 2.6542933 12.033027-.9250133 3.067724-3.57824 2.653858-8.9666134-.92373-12.03328zm-184.7554518 130.1608533c0 4.712533 3.8207876 8.533333 8.5333056 8.533333 4.7133713 0 8.5333055-3.8208 8.5333055-8.533333v-76.748373c0-4.71168-3.8199342-8.53248-8.5333055-8.53248-4.712518 0-8.5333056 3.8208-8.5333056 8.533333zm42.6673811 17.066667c0 4.712533 3.8207876 8.533333 8.5333056 8.533333s8.5333055-3.8208 8.5333055-8.533333v-114.0008537c0-4.7125333-3.8207875-8.5333333-8.5333055-8.5333333s-8.5333056 3.8208-8.5333056 8.5333333zm42.6665277 4.317866c0 4.714667 3.820788 8.533334 8.533306 8.533334s8.533305-3.818667 8.533305-8.533334v-123.7329063c0-4.7125334-3.820787-8.5333334-8.533305-8.5333334s-8.533306 3.8208-8.533306 8.5333334zm42.666528-4.317866c0 4.712533 3.820787 8.533333 8.533305 8.533333s8.533306-3.8208 8.533306-8.533333v-114.0008537c0-4.7125333-3.820788-8.5333333-8.533306-8.5333333s-8.533305 3.8208-8.533305 8.5333333zm61.866465 46.933333h-192.0002282c-17.6724331 0-31.9998758-14.327467-31.9998758-32l.00083333-192c0-17.6724907 14.32660937-32 31.99904247-32h192.0002282c17.672476 0 31.999896 14.3275093 31.999896 32v192c0 17.672533-14.32742 32-31.999896 32z" fill="#1f8ded" transform="matrix(1 0 0 -1 0 256)"/></svg>

<?xml version="1.0" encoding="UTF-8" standalone="no"?>
<svg width="256px" height="256px" viewBox="0 0 256 256" version="1.1" xmlns="http://www.w3.org/2000/svg" xmlns:xlink="http://www.w3.org/1999/xlink" preserveAspectRatio="xMidYMid">
    <g>
        <path d="M221.866778,115.251627 C221.866778,110.539093 218.04599,106.718293 213.333472,106.718293 C208.620954,106.718293 204.800167,110.539093 204.800167,115.251627 L204.800167,192 C204.800167,196.712533 208.620954,200.533333 213.333472,200.533333 C218.04599,200.533333 221.866778,196.712533 221.866778,192 L221.866778,115.251627 Z M218.888654,61.8391467 C217.570258,60.7099733 185.958628,34.1841067 128.000417,34.1841067 C70.0422053,34.1841067 38.4316416,60.7108267 37.1132459,61.84 C33.5356575,64.9066667 33.1215788,70.2941867 36.1882355,73.87328 C39.2482789,77.4442667 44.6206348,77.8666667 48.2007831,74.8149333 C48.7023281,74.3957333 76.9296496,51.25248 128.000417,51.2516267 C179.712675,51.2516267 207.504371,74.56256 207.779357,74.79744 C211.350119,77.8641067 216.746794,77.4517333 219.812384,73.8724267 C222.880108,70.2941867 222.466242,64.9058133 218.888654,61.8391467 L218.888654,61.8391467 Z M34.1332022,192 C34.1332022,196.712533 37.9539898,200.533333 42.6665078,200.533333 C47.3798791,200.533333 51.1998133,196.712533 51.1998133,192 L51.1998133,115.251627 C51.1998133,110.539947 47.3798791,106.719147 42.6665078,106.719147 C37.9539898,106.719147 34.1332022,110.539947 34.1332022,115.25248 L34.1332022,192 Z M76.8005833,209.066667 C76.8005833,213.7792 80.6213709,217.6 85.3338889,217.6 C90.0464069,217.6 93.8671944,213.7792 93.8671944,209.066667 L93.8671944,95.0658133 C93.8671944,90.35328 90.0464069,86.53248 85.3338889,86.53248 C80.6213709,86.53248 76.8005833,90.35328 76.8005833,95.0658133 L76.8005833,209.066667 Z M119.467111,213.384533 C119.467111,218.0992 123.287899,221.917867 128.000417,221.917867 C132.712935,221.917867 136.533722,218.0992 136.533722,213.384533 L136.533722,89.6516267 C136.533722,84.9390933 132.712935,81.1182933 128.000417,81.1182933 C123.287899,81.1182933 119.467111,84.9390933 119.467111,89.6516267 L119.467111,213.384533 Z M162.133639,209.066667 C162.133639,213.7792 165.954426,217.6 170.666944,217.6 C175.379462,217.6 179.20025,213.7792 179.20025,209.066667 L179.20025,95.0658133 C179.20025,90.35328 175.379462,86.53248 170.666944,86.53248 C165.954426,86.53248 162.133639,90.35328 162.133639,95.0658133 L162.133639,209.066667 Z M224.000104,256 L31.9998758,256 C14.3274427,256 0,241.672533 0,224 L0.000833330621,32 C0.000833330621,14.3275093 14.3274427,0 31.9998758,0 L224.000104,0 C241.67258,0 256,14.3275093 256,32 L256,224 C256,241.672533 241.67258,256 224.000104,256 L224.000104,256 Z" fill="#1F8DED" transform="translate(128.000000, 128.000000) scale(1, -1) translate(-128.000000, -128.000000) "></path>
    </g>
</svg>
